X: 20
T: Follow me Home
R: reel
M: C|
L: 1/8
Z: 2010 John Chambers <jc:trillian.mit.edu>
B: John Johnson ed. "Twenty Four Country Dances", p.82 London 1766
K: Bb
F2 |\
BABc BdcB | cBAG FBAB | GFED CBAc | BFDF B,2((3def) |
gdcB AcAF | EcGE CdcB | AcAF CGB=e | f2 F4 :|
|: AB |\
cdcB ABAG | FEDC B,BAc | Bdce dcBA | GCB,A, G,BAB |
FdcB Agfe | dbag fedc | dBFB cAFA | B2 B,4 :|


%%sep 5 1 500

